Icons/Colored/RotateAroundRight.svg

<svg xmlns="http://www.w3.org/2000/svg" xml:space="preserve" fill-rule="evenodd" stroke-linejoin="round" stroke-miterlimit="2" clip-rule="evenodd" viewBox="0 0 64 64">
  <g id="blue">
    <path fill="#73a7c7" fill-rule="nonzero" d="M40.441 54.504s-8.445-.484-14.472-3.766c-4.633-2.519-7.215-7.343-7.242-10.902-.055-8.336.343-17.438 2.187-20.262 3.652-5.594 14.41-4.105 14.41-4.105V9.496l9.953 8.34-9.953 10.312v-6.582s-6.699-1.636-8.953 2.43c-1.062 1.922-1.324 9.039-1.301 16.02.028 7.812 15.196 7.589 15.196 7.589l.175 6.899Z"/>
  </g>
  <g id="brown">
    <path fill="#893d00" d="M44.715 35.555a6.357 6.357 0 1 1-12.715 0 6.357 6.357 0 0 1 6.359-6.356 6.354 6.354 0 0 1 6.356 6.356Z"/>
  </g>
</svg>

<?xml version="1.0" encoding="UTF-8" standalone="no"?>
<!DOCTYPE svg PUBLIC "-//W3C//DTD SVG 1.1//EN" "http://www.w3.org/Graphics/SVG/1.1/DTD/svg11.dtd">
<svg width="100%" height="100%" viewBox="0 0 64 64" version="1.1" xmlns="http://www.w3.org/2000/svg" xmlns:xlink="http://www.w3.org/1999/xlink" xml:space="preserve" xmlns:serif="http://www.serif.com/" style="fill-rule:evenodd;clip-rule:evenodd;stroke-linejoin:round;stroke-miterlimit:2;">
    <g id="surface1">
        <path d="M44.715,35.555C44.715,39.066 41.871,41.914 38.359,41.914C34.848,41.914 32,39.066 32,35.555C32,32.043 34.848,29.199 38.359,29.199C41.871,29.199 44.715,32.043 44.715,35.555Z" style="fill:#893d00;"/>
        <path d="M40.441,54.504C40.441,54.504 31.996,54.02 25.969,50.738C21.336,48.219 18.754,43.395 18.727,39.836C18.672,31.5 19.07,22.398 20.914,19.574C24.566,13.98 35.324,15.469 35.324,15.469L35.324,9.496L45.277,17.836L35.324,28.148L35.324,21.566C35.324,21.566 28.625,19.93 26.371,23.996C25.309,25.918 25.047,33.035 25.07,40.016C25.098,47.828 40.266,47.605 40.266,47.605L40.441,54.504Z" style="fill:#73a7c7;fill-rule:nonzero;"/>
    </g>
</svg>
